public/images/svg/icon-non-lock.svg

<svg fill="none" height="16" viewBox="0 0 15 16" width="15" xmlns="http://www.w3.org/2000/svg"><path clip-rule="evenodd" d="m13.5241 14.5553c.3047-.3047.4759-.7181.4759-1.1491v-4.87495c0-.2255-.0468-.44616-.1352-.64897l-9.03026 7.14892h7.54046c.431 0 .8443-.1712 1.1491-.4759zm-1.5553-9.61114.9065-.72524c.4313-.34501 1.0606-.27509 1.4056.15617s.2751 1.06056-.1562 1.40557l-12.49997 10.00004c-.43126.345-1.060552.275-1.405562-.1562-.34501-.4313-.275088-1.0606.156174-1.4056l.651098-.5209c-.01745-.0956-.0264-.1932-.0264-.2918v-4.87495c0-.43098.1712-.8443.47595-1.14905.30474-.30474.71807-.47595 1.14905-.47595h.40625v-2.4375c0-1.18519.47081-2.32183 1.30886-3.15988.83806-.838056 1.9747-1.30887 3.15989-1.30887 1.18518 0 2.32183.470814 3.15986 1.30887.8381.83805 1.3089 1.97469 1.3089 3.15988zm-2.43751 1.95v-2.42541c0-.53872-.21401-1.05538-.59494-1.43631-.38094-.38093-.89759-.59494-1.43631-.59494-.53873 0-1.05538.21401-1.43632.59494-.38093.38093-.59493.89759-.59493 1.43631v2.4375h4.04739z" fill="#181818" fill-rule="evenodd"/></svg>

<svg width="15" height="16" viewBox="0 0 15 16" fill="none" xmlns="http://www.w3.org/2000/svg">
<path fill-rule="evenodd" clip-rule="evenodd" d="M13.5241 14.5553C13.8288 14.2506 14 13.8372 14 13.4062V8.53125C14 8.30575 13.9532 8.08509 13.8648 7.88228L4.83454 15.0312H12.375C12.806 15.0312 13.2193 14.86 13.5241 14.5553ZM11.9688 4.94416L12.8753 4.21892C13.3066 3.87391 13.9359 3.94383 14.2809 4.37509C14.6259 4.80635 14.556 5.43565 14.1247 5.78066L1.62473 15.7807C1.19347 16.1257 0.564178 16.0557 0.219168 15.6245C-0.125842 15.1932 -0.05592 14.5639 0.375342 14.2189L1.02644 13.698C1.00899 13.6024 1.00004 13.5048 1.00004 13.4062V8.53125C1.00004 8.10027 1.17124 7.68695 1.47599 7.3822C1.78073 7.07746 2.19406 6.90625 2.62504 6.90625H3.03129V4.46875C3.03129 3.28356 3.5021 2.14692 4.34015 1.30887C5.17821 0.470814 6.31485 0 7.50004 0C8.68522 0 9.82187 0.470814 10.6599 1.30887C11.498 2.14692 11.9688 3.28356 11.9688 4.46875V4.94416ZM9.53129 6.89416V4.46875C9.53129 3.93003 9.31728 3.41337 8.93635 3.03244C8.55541 2.65151 8.03876 2.4375 7.50004 2.4375C6.96131 2.4375 6.44466 2.65151 6.06372 3.03244C5.68279 3.41337 5.46879 3.93003 5.46879 4.46875V6.90625H9.51618L9.53129 6.89416Z" fill="#181818"/>
</svg>
